!!!!SEGMENT: pl-kk--kk-i-3--006-007_anonim--officium-primum-de-annuntiatione-de-bmv-ave-maria.krn
!!!cenid: 15xx:584
!!!COM: Anonim
!!!COM-rismID: pe30004985
!!!CDT:
!!!CNT:
!!!OPR: Officium Primum de Annuntiatione de BMV
!!!OTL: Ave Maria
!!!OMV: 007
!!!PDT:
!!!AGN:
!!!SMS-siglum: PL-Kk
!!!SMS-shelfmark: Kk.I.3
!!!SMS-shelfwork: 006-007 M
!!!SMS-variant:
!!!SMS-altvar:
!!!NIFC-rismSourceID: 1001145493
!!!NIFC-rismChildID: 1001145504
!!!NIFC-islandoraID: pl-kk:1170
!!!URL-pdf-islandora: https://repozytorium.nifc.pl/islandora/object/pl-kk%3A1170/datastream/PDF/view
!!!URL-scan: https://polish.musicsources.pl/pl/lokalizacje/galeria/rekopisy/5919 @EN{Scan on Polish Music Sources Website} @PL{Skany w portalu Dziedzictwo Muzyki Polskiej w otwartym dostępie}
!!!IIIF:
!!!ONB-nifc: UWAGA: Discantus (s. 23v-25r, skan 0026-0027), Tenor (s. 19v-20r, skan 0192), Bassus (s. 20v-22r, skan 0324-0325). Następna część: Sanctus
!!!AIN: 1 bass 1 tenor 1 vox
!!!key: F
**kern	**text	**kern	**text	**kern	**text
*part3	*part3	*part2	*part2	*part1	*part1
*staff3	*staff3	*staff2	*staff2	*staff1	*staff1
*I"Basso	*	*I"Tenore	*	*I"Discantus	*
*I'B	*	*I'T	*	*I'C	*
*Ibass	*	*Itenor	*	*Ivox	*
*ICvox	*	*ICvox	*	*ICvox	*
*clefF4	*	*clefC4	*	*clefC3	*
*k[b-]	*	*k[b-]	*	*k[b-]	*
*F:	*	*F:	*	*F:	*
*M2/1	*	*M2/1	*	*M2/1	*
*met(C)	*	*	*	*met(C)	*
=1-	=1-	=1-	=1-	=1-	=1-
*	*	*	*	*2\right	*
!	!	!	!	!LO:TX:a:t=Offertoriu(m) Primi Officij	!
!	!	!	!	!LO:TX:b:t=&colon;t&colon;	!
!	!	!	!	!LO:TX:t=P:problem=w Cantus bemol przy kluczu, w Bassus bemole przygodne. W Tenorze bemoli brak.	!
1F	A-	1F	A-	1f	A-
1C	.	1G	.	2.e\	.
.	.	.	.	4d/	.
=2-	=2-	=2-	=2-	=2-	=2-
*	*	*lig	*	*	*
1F	.	1A	.	2c/	.
.	.	.	.	1f	.
1C	.	1G	.	.	.
.	.	.	.	2e\	.
*	*	*Xlig	*	*	*
=3-	=3-	=3-	=3-	=3-	=3-
*2\right	*	*	*	*	*
*	*	*lig	*	*	*
2F\	.	1A	.	2.f\	.
2.FF/	.	.	.	.	.
.	.	.	.	4e\	.
.	.	1F	.	2d/	.
4GG/	.	.	.	.	.
2AA/	.	.	.	2c/	.
*	*	*Xlig	*	*	*
=4-	=4-	=4-	=4-	=4-	=4-
2.GG/	.	1G	.	2B-/	.
.	.	.	.	2.d/	.
4AA/	.	.	.	.	.
4BB-/	.	1F	.	.	.
4C/	.	.	.	4c/	.
*custos:E	*	*	*	*	*
2D/	.	.	.	4B-/	.
*	*	*	*	*custos:G	*
.	.	.	.	4A/	.
=5-	=5-	=5-	=5-	=5-	=5-
!LO:PB:g=original	!	!	!	!LO:LB:g=original	!
2E/	.	1E	.	2G/	.
2C/	.	.	.	1c	.
2F/	.	1D	.	.	.
1D\	.	.	.	2B-/	.
=6-	=6-	=6-	=6-	=6-	=6-
.	.	[<1F	.	0A	.
2D/	.	.	.	.	.
1D	.	1F]	.	.	.
=7-	=7-	=7-	=7-	=7-	=7-
2GG/	.	1G	.	2G/	.
1C	.	.	.	1g	.
.	.	1A	.	.	.
2D/	.	.	.	2f\	.
=8-	=8-	=8-	=8-	=8-	=8-
1E	.	1G	.	1g	.
2F/	.	1F	.	1d	.
2D/	.	.	.	.	.
=9-	=9-	=9-	=9-	=9-	=9-
2E/	.	1G	.	2r	.
1G	.	.	.	2d/	.
.	.	1A	.	2c/	.
2F/	.	.	.	2A/	.
=10-	=10-	=10-	=10-	=10-	=10-
1G	-ve	1G,	-ve	1d	-ve
1C	Ma-	1G	Ma-	2.e/	Ma-
.	.	.	.	4d/	.
=11-	=11-	=11-	=11-	=11-	=11-
2F/	.	1A	-ri-	2c/	.
*custos:C	*	*	*	*	*
2D/	.	.	.	2f\	-ri-
*	*	*lig	*	*	*
*	*	*	*	*custos:c	*
!LO:LB:g=original	!	!	!	!	!
1C	-ri-	1c	.	2e\	.
!	!	!	!	!LO:PB:g=original	!
.	.	.	.	2c/	-ri-
=12-	=12-	=12-	=12-	=12-	=12-
1G	.	1B-	.	1d	.
*	*	*Xlig	*	*	*
*	*	*lig	*	*	*
2C/	.	1c	.	2c/	.
2.F\	.	.	.	2.A/	.
=13-	=13-	=13-	=13-	=13-	=13-
*	*	*custos:G	*	*	*
.	.	1A	.	.	.
4E/	.	.	.	4B-/	.
2C/	.	.	.	2c/	.
*	*	*Xlig	*	*	*
!	!	!LO:LB:g=original	!	!	!
2G\	.	1G	.	2d/	.
2C/	.	.	.	2e/	.
=14-	=14-	=14-	=14-	=14-	=14-
1D	.	1F	.	2f/	.
.	.	.	.	1d	.
2r	.	1G	.	.	.
2C/	.	.	.	2e/	.
=15-	=15-	=15-	=15-	=15-	=15-
1F	.	1A	.	1c	.
1F	.	1c	.	1A	.
=16-	=16-	=16-	=16-	=16-	=16-
*	*	*lig	*	*	*
2r	.	1A	.	2r	.
2.FF/	.	.	.	2.A/	.
.	.	1F	.	.	.
4GG/	.	.	.	4B-/	.
2AA/	.	.	.	2c/	.
*	*	*Xlig	*	*	*
=17-	=17-	=17-	=17-	=17-	=17-
2GG/	.	1G	.	2B-/	.
*custos:F	*	*	*	*	*
2C/	.	.	.	2c/	-a
!LO:LB:g=original	!	!	!	!	!
2FF/	-a	1G,	-a	2d/	.
*	*	*	*	*custos:d	*
2C/	.	.	.	2e/	.
=18-	=18-	=18-	=18-	=18-	=18-
!	!	!LO:TX:b:t=Fałszuje to "g"	!	!	!
*	*	*lig	*	*	*
!	!	!	!	!LO:LB:g=original	!
2FF/	gra-	1G	gra-	2d/	.
2C/	.	.	.	2e/	.
2D/	.	1D	.	2f\	gra-
1BB-X/	.	.	.	1d\	.
*	*	*Xlig	*	*	*
=19-	=19-	=19-	=19-	=19-	=19-
.	.	1F	.	.	.
2AA/	.	.	.	2c/	.
1GG	.	1E	.	1B-	.
=20-	=20-	=20-	=20-	=20-	=20-
1FF	.	1F	.	1A	.
2r	.	[>1D	.	0d	.
2.F\	.	.	.	.	.
=21-	=21-	=21-	=21-	=21-	=21-
.	.	1D]	.	.	.
4G\	.	.	.	.	.
2A\	.	.	.	.	.
1G	.	1E	.	2r	.
.	.	.	.	1c\	.
=22-	=22-	=22-	=22-	=22-	=22-
2F\	.	1F	.	.	.
2D/	.	.	.	2d/	.
1C	.	1G	.	1e	.
=23-	=23-	=23-	=23-	=23-	=23-
1D	-ci-	1F	-ci-	2.f\	-ci-
.	.	.	.	4e\	.
*custos:C	*	*	*	*	*
2GG/	.	1G	.	2d/	.
!LO:LB:g=original	!	!	!	!	!
2C/	.	.	.	2c/	.
=24-	=24-	=24-	=24-	=24-	=24-
2GG/	-a	1G	-a	2d/	.
2.G\	ple-	.	.	2e/	-a
.	.	1G	ple-	2d/	.
4F\	.	.	.	.	.
2E\	.	.	.	1g\	ple-
=25-	=25-	=25-	=25-	=25-	=25-
*	*	*lig	*	*	*
1D	-na	1A	.	.	.
*	*	*	*	*custos:g	*
.	.	.	.	2f\	.
!	!	!	!	!LO:LB:g=original	!
1E	.	1G	.	1g	-na
*	*	*Xlig	*	*	*
=26-	=26-	=26-	=26-	=26-	=26-
*	*	*custos:A	*	*	*
2r	.	1G	-na	1r	.
2G\	do	.	.	.	.
!	!	!LO:LB:g=original	!	!	!
1F	.	1A	do-	2r	.
.	.	.	.	1c\	do-
=27-	=27-	=27-	=27-	=27-	=27-
2E/	.	1c	.	.	.
2A\	.	.	.	2c/	.
1G	.	1B-	.	2d/	.
.	.	.	.	2e\	.
=28-	=28-	=28-	=28-	=28-	=28-
1.D	.	1A	.	2f\	.
.	.	.	.	1d	.
.	.	1d	.	.	.
2E/	.	.	.	4c/	.
.	.	.	.	4B-/	.
=29-	=29-	=29-	=29-	=29-	=29-
2.F\	.	[<1c	.	4A/	.
.	.	.	.	4G/	.
.	.	.	.	2.F/	.
*custos:A	*	*	*	*	*
4G\	.	.	.	.	.
!LO:LB:g=original	!	!	!	!	!
2A\	.	1c]	.	.	.
.	.	.	.	4G/	.
1F\	.	.	.	4A/	.
.	.	.	.	4B-/	.
=30-	=30-	=30-	=30-	=30-	=30-
.	.	1A	.	2c/	.
4E/	.	.	.	2d/	.
4D/	.	.	.	.	.
0C	.	1c	.	0e	.
=31-	=31-	=31-	=31-	=31-	=31-
.	.	[>1G	.	.	.
1C	.	1G]	.	1e	.
=32-	=32-	=32-	=32-	=32-	=32-
*	*	*	*	*custos:c	*
1F	.	1A	.	2r	.
!	!	!	!	!LO:LB:g=original	!
.	.	.	.	1c	.
2E/	.	1c	.	.	.
2A\	.	.	.	2c/	.
=33-	=33-	=33-	=33-	=33-	=33-
1G	.	1B-	.	2d/	.
.	.	.	.	2e\	.
1.D	.	1A	.	2f\	.
.	.	.	.	1d\	.
=34-	=34-	=34-	=34-	=34-	=34-
.	.	1d	.	.	.
2E/	.	.	.	4c/	.
.	.	.	.	4B-/	.
2.F\	.	1c	.	4A/	.
.	.	.	.	4G/	.
.	.	.	.	2.F/	.
4G\	.	.	.	.	.
=35-	=35-	=35-	=35-	=35-	=35-
*	*	*lig	*	*	*
2A\	.	1c	.	.	.
.	.	.	.	4G/	.
1F	.	.	.	4A/	.
.	.	.	.	4B-/	.
.	.	1A	.	2c/	.
4E/	.	.	.	2d/	.
4D/	.	.	.	.	.
*	*	*Xlig	*	*	*
=36-	=36-	=36-	=36-	=36-	=36-
*custos:C	*	*	*	*	*
*	*	*lig	*	*	*
0C	.	1c	.	0e	.
.	.	1G	.	.	.
*	*	*Xlig	*	*	*
=37-	=37-	=37-	=37-	=37-	=37-
!LO:PB:g=original	!	!	!	!	!
1C	.	1G	.	1e	.
1FF	.	1A	.	1f	.
=38-	=38-	=38-	=38-	=38-	=38-
*	*	*lig	*	*	*
2r	.	1c	.	1r	.
1F	.	.	.	.	.
.	.	1G	.	2r	.
*	*	*	*	*custos:d	*
2E/	.	.	.	2c/	.
*	*	*Xlig	*	*	*
=39-	=39-	=39-	=39-	=39-	=39-
!	!	!	!	!LO:LB:g=original	!
1D	.	1F	.	1d	-mi-
2E/	.	1G	-mi-	2.g\	.
2.G\	.	.	.	.	.
.	.	.	.	4f\	.
=40-	=40-	=40-	=40-	=40-	=40-
.	.	1G	-nus	4e\	.
4F/	.	.	.	4d\	.
4E/	.	.	.	1c	-nus
4D/	.	.	.	.	.
*	*	*lig	*	*	*
2C/	.	1G	te-	.	.
1D\	.	.	.	4B-/	.
.	.	.	.	4A/	.
=41-	=41-	=41-	=41-	=41-	=41-
*	*	*custos:D	*	*	*
.	.	1E	.	1G	.
2C/	.	.	.	.	.
*	*	*Xlig	*	*	*
!	!	!LO:LB:g=original	!	!	!
2D/	.	1D	.	2.d/	te-
1GG/	.	.	.	.	.
.	.	.	.	4c/	.
=42-	=42-	=42-	=42-	=42-	=42-
.	.	1E	.	4B-/	.
.	.	.	.	4A/	.
1C	.	.	.	1G	.
.	.	[>1G	.	.	.
2C/	.	.	.	2c/	.
=43-	=43-	=43-	=43-	=43-	=43-
2GG/	.	1G]	.	2d/	.
*custos:AA	*	*	*	*	*
2C/	.	.	.	2e/	.
!LO:LB:g=original	!	!	!	!	!
2AA/	.	1A	.	2c/	.
2D/	.	.	.	1f\	.
=44-	=44-	=44-	=44-	=44-	=44-
2BB-/	.	1G	.	.	.
2C/	.	.	.	1e	.
2AA/	.	1F	.	.	.
*	*	*	*	*custos:g	*
2.BB-X/	.	.	.	1d\	.
=45-	=45-	=45-	=45-	=45-	=45-
.	.	1G	.	.	.
4AA/	.	.	.	.	.
!	!	!	!	!LO:PB:g=original	!
2GG/	.	.	.	1g	.
1D	.	1A	.	.	.
.	.	.	.	2f\	-cvm
=46-	=46-	=46-	=46-	=46-	=46-
1GG	.	1G	-cu(m)	1g	.
=47-	=47-	=47-	=47-	=47-	=47-
*M3/2	*	*M3/2	*	*M3/2	*
!LO:TX:t=P:problem=znak proporcji	!	!	!	!LO:TX:t=P:problem=znak proporcji	!
2.G\	Be-	1.G	be-	1d	Be-
4F\	.	.	.	.	.
4E\	.	.	.	2d,/	-ne-
4D/	.	.	.	.	.
=48-	=48-	=48-	=48-	=48-	=48-
2C/	.	1.c	-ne-	2e/	-di-
2F/	-ne-	.	.	2f/	.
*custos:F	*	*	*	*	*
2E/	.	.	.	2g,\	.
=49-	=49-	=49-	=49-	=49-	=49-
!LO:LB:g=original	!	!	!	!	!
2.F\	-di-	1.c	-di-	2.a\	.
4G\	.	.	.	4g\	.
2A\	.	.	.	4f\	.
.	.	.	.	4e,\	.
=50-	=50-	=50-	=50-	=50-	=50-
2.G\	.	1.d	.	4d/	.
.	.	.	.	4c/	.
.	.	.	.	4B-/	.
4F\	.	.	.	4A/	.
4E/	.	.	.	4G/	.
*	*	*	*	*custos:G	*
4D/	.	.	.	4F,/	.
=51-	=51-	=51-	=51-	=51-	=51-
*	*	*lig	*	*	*
!	!	!	!	!LO:LB:g=original	!
2.C/	.	1.e	-cta	2G/	.
.	.	.	.	2A/	.
4D/	.	.	.	.	.
4E/	.	.	.	2G,/	.
4F\	.	.	.	.	.
=52-	=52-	=52-	=52-	=52-	=52-
2G\	.	1.d	.	2G/	-cta
2F\	-cta	.	.	2A/	.
2G\	.	.	.	2B-,/	.
*	*	*Xlig	*	*	*
=53-	=53-	=53-	=53-	=53-	=53-
2A\	.	1.c	.	2c/	.
2F\	.	.	.	2A/	.
2A\	.	.	.	1c,\	.
=54-	=54-	=54-	=54-	=54-	=54-
4G\	.	1.d	tu	.	.
4F\	.	.	.	.	.
*custos:C	*	*	*	*	*
1G	.	.	.	4B-/	.
.	.	.	.	4A/	.
.	.	.	.	2B-/	.
=55-	=55-	=55-	=55-	=55-	=55-
*M2/1	*	*M2/1	*	*M2/1	*
*met(C)	*	*	*	*met(C|)	*
!LO:LB:g=original	!	!	!	!	!
1C	tu	1c	.	2.c/	.
.	.	.	.	4d/	.
*	*	*lig	*	*	*
1r	.	1c	.	2e\	.
.	.	.	.	2f\	tu
=56-	=56-	=56-	=56-	=56-	=56-
0r	.	1B-	.	1d	.
*	*	*Xlig	*	*	*
*	*	*	*	*custos:f	*
.	.	1c	.	2c/	.
!	!	!	!	!LO:LB:g=original	!
.	.	.	.	2.f\	.
=57-	=57-	=57-	=57-	=57-	=57-
0r	.	1d	.	.	.
.	.	.	.	4e/	.
.	.	.	.	2d/	.
*	*	*lig	*	*	*
.	.	1A	.	1c	.
=58-	=58-	=58-	=58-	=58-	=58-
1E	in	1G	.	2r	.
.	.	.	.	1g	in
*	*	*Xlig	*	*	*
1D	mu-	1A	in	.	.
.	.	.	.	2f\	.
=59-	=59-	=59-	=59-	=59-	=59-
*	*	*custos:c	*	*	*
1E	.	1G	mu-	1g	mu-
!	!	!LO:LB:g=original	!	!	!
1F	.	1c	.	2.f\	.
.	.	.	.	4e/	.
=60-	=60-	=60-	=60-	=60-	=60-
*	*	*lig	*	*	*
1G	-li	1B-	.	1d	.
2A\	.	1A	.	2r	.
2.F\	.	.	.	2c/	.
*	*	*Xlig	*	*	*
=61-	=61-	=61-	=61-	=61-	=61-
.	.	1d	-li-	2d/	.
4E/	.	.	.	.	.
2D/	.	.	.	2f\	.
2E/	.	1c	-e-	1e	-li-
2F/	.	.	.	.	.
=62-	=62-	=62-	=62-	=62-	=62-
1G	.	1B-	.	1d	-e-
1D	.	1A	.	1d	.
=63-	=63-	=63-	=63-	=63-	=63-
1C	.	1c	-ri-	2r	.
.	.	.	.	2.g\	-ri-
*custos:F	*	*	*	*	*
1E	.	1B-	.	.	.
.	.	.	.	4f\	.
.	.	.	.	4e/	.
*	*	*	*	*custos:c	*
.	.	.	.	4d/	.
=64-	=64-	=64-	=64-	=64-	=64-
!LO:LB:g=original	!	!	!	!LO:LB:g=original	!
2F/	.	1A	.	2c/	.
2D/	.	.	.	1f	.
1C	.	1c	-bus	.	.
.	.	.	.	2e\	.
=65-	=65-	=65-	=65-	=65-	=65-
2r	.	1c	.	1f	-bus
2F/	.	.	.	.	.
1E	.	1G	et	2r	.
.	.	.	.	2g\	et
=66-	=66-	=66-	=66-	=66-	=66-
1D	.	1B-	be-	1f	be-
1C	.	1c	.	1e	.
=67-	=67-	=67-	=67-	=67-	=67-
*	*	*lig	*	*	*
2GG/	.	1d	.	1d	-ne-
2G\	.	.	.	.	.
2A\	.	1c	-ne	1r	.
2.F\	.	.	.	.	.
*	*	*Xlig	*	*	*
=68-	=68-	=68-	=68-	=68-	=68-
.	.	1A	di-	2r	.
4E/	.	.	.	.	.
2D/	.	.	.	2f\	-di-
*	*	*lig	*	*	*
2C/	.	1c	.	2e\	.
2.F\	.	.	.	2c/	.
=69-	=69-	=69-	=69-	=69-	=69-
.	.	1A	.	1d	.
4E/	.	.	.	.	.
2D/	.	.	.	.	.
*	*	*Xlig	*	*	*
2C/	.	1c	.	2e\	.
1F\	.	.	.	2c/	.
=70-	=70-	=70-	=70-	=70-	=70-
.	.	1G	-ctus	1B-	-ctus
*custos:F	*	*	*	*	*
2E/	.	.	.	.	.
!LO:PB:g=original	!	!	!	!	!
2.F/	.	1A	.	2A/	.
.	.	.	.	2c/	.
4E/	.	.	.	.	.
=71-	=71-	=71-	=71-	=71-	=71-
*	*	*	*	*custos:e	*
1D	.	1B-	.	1d	.
*	*	*lig	*	*	*
!	!	!	!	!LO:LB:g=original	!
1C	.	1c	.	2e\	.
.	.	.	.	2.c/	.
=72-	=72-	=72-	=72-	=72-	=72-
2r	.	1A,	.	.	.
.	.	.	.	4B-/	.
2FF/	.	.	.	2A/	.
*	*	*Xlig	*	*	*
1GG	.	1G	fru-	1d	fru-
=73-	=73-	=73-	=73-	=73-	=73-
*	*	*custos:G	*	*	*
1AA	.	1F	.	2r	.
.	.	.	.	2A/	.
!	!	!LO:PB:g=original	!	!	!
1GG	.	1G	.	1B-	.
=74-	=74-	=74-	=74-	=74-	=74-
2r	.	1A	.	2c/	.
2.FF/	.	.	.	2.A/	.
*	*	*lig	*	*	*
.	.	1F	.	.	.
4GG/	.	.	.	4B-/	.
4AA/	.	.	.	4c/	.
4BB-/	.	.	.	4d/	.
=75-	=75-	=75-	=75-	=75-	=75-
1C	.	1E	.	2e/	.
.	.	.	.	1c	.
*	*	*Xlig	*	*	*
2FF/	.	1F	.	.	.
2.F\	.	.	.	2.d/	.
=76-	=76-	=76-	=76-	=76-	=76-
.	.	1D	-ctus	.	.
4E/	.	.	.	4c/	-ctus
2.D/	.	.	.	1B-	.
.	.	1D	ve-	.	.
4E/	.	.	.	.	.
*custos:C	*	*	*	*	*
2F/	.	.	.	2A/	ven-
=77-	=77-	=77-	=77-	=77-	=77-
*	*	*	*	*custos:g	*
!LO:LB:g=original	!	!	!	!	!
1C	.	1E	.	2G/	.
!	!	!	!	!LO:PB:g=original	!
.	.	.	.	1g	.
1D	.	1F	.	.	.
.	.	.	.	4f\	.
.	.	.	.	4e\	.
=78-	=78-	=78-	=78-	=78-	=78-
2r	.	1G	.	2d/	.
1C	.	.	.	1e	.
*	*	*lig	*	*	*
.	.	1A	.	.	.
1FF/	.	.	.	2.f\	.
=79-	=79-	=79-	=79-	=79-	=79-
.	.	1F	.	.	.
.	.	.	.	4e/	.
2GG/	.	.	.	1d	.
*	*	*Xlig	*	*	*
1AA	.	1E	.	.	.
.	.	.	.	2c/	.
=80-	=80-	=80-	=80-	=80-	=80-
2r	.	[>1D	.	2.d/	.
2.A\	.	.	.	.	.
.	.	.	.	4c/	.
.	.	1D]	.	2B-/	.
4G\	.	.	.	.	.
2F\	.	.	.	2A/	.
=81-	=81-	=81-	=81-	=81-	=81-
1E	.	1E	.	2G/	.
.	.	.	.	2c/	.
1D	.	1F	.	2d/	.
.	.	.	.	2.d/	.
=82-	=82-	=82-	=82-	=82-	=82-
1GG	.	1G	.	.	.
.	.	.	.	4c/	.
.	.	.	.	2B-/	.
*	*	*	*	*custos:d	*
2.D/	.	1F	.	2A/	.
!	!	!	!	!LO:LB:g=original	!
.	.	.	.	2d/	-tris
4E/	.	.	.	.	.
=83-	=83-	=83-	=83-	=83-	=83-
*	*	*lig	*	*	*
2.F/	.	1A	.	2c/	.
.	.	.	.	2.f\	.
4E/	.	.	.	.	.
4D/	.	1F	.	.	.
4C/	.	.	.	4e/	.
4BB-/	.	.	.	4d/	.
*custos:GG	*	*	*	*	*
4AA/	.	.	.	4c/	.
*	*	*Xlig	*	*	*
=84-	=84-	=84-	=84-	=84-	=84-
!LO:LB:g=original	!	!	!	!	!
2GG/	.	1G	-tris	4B-/	.
.	.	.	.	4A/	.
2.C/	.	.	.	1G	.
.	.	1G	tu-	.	.
4D/	.	.	.	.	.
2E/	.	.	.	1g\	.
=85-	=85-	=85-	=85-	=85-	=85-
1D	.	1A	.	.	.
.	.	.	.	4f\	tu-
.	.	.	.	4e\	.
1D	.	1A	.	1f	.
=86-	=86-	=86-	=86-	=86-	=86-
1GG	.	1G	-i	2.g\	.
.	.	.	.	4f\	.
2C/	.	0.G	.	2e/	.
2GG/	.	.	.	2d/	.
=87-	=87-	=87-	=87-	=87-	=87-
1C	.	.	.	1e	.
1GGl;>	.	.	.	1dl;>	-i
!	!	!LO:LB:g=original	!	!LO:LB:g=original	!
=-	=-	=-	=-	=-	=-
*-	*-	*-	*-	*-	*-
!!!system-decoration: [(s1,s2,s3)]
!!!RDF**kern: < = below
!!!RDF**kern: > = above
!!!RDF**kern: l = terminal long
!!!ENC: Mateusz Solarz
!!!END: 2021-12-28
!!!ENC: Marta Chmielewska
!!!END: 2021-12-31
!!!YEC: Copyright 2022 Narodowy Instytut Fryderyka Chopina (https://polishscores.org)
!!!YEM: License CC-BY-4.0 (https://creativecommons.org/licenses/by/4.0)
